**kern	**mxhm
*clefG2	*
*k[b-e-a-]	*
*c:	*
*M4/4	*
8g	.
=!|:	=!|:
4.ee-	C:min7
[8cc	.
2cc_	.
=	=
2.cc_	.
8ccL]	.
8gJ	.
=	=
8ee-L	.
[8ccJ	.
2cc_	.
8ccL]	.
8gJ	.
=	=
8ccL	.
8ee-J	.
4r	.
4r	.
8r	.
8ee-	.
!!linebreak:original
=	=
4.ff	F:min7
[8cc	.
2cc_	.
=	=
2..cc]	.
8ff	.
=	=
4.ee-	C:min7
[8cc	.
4.cc]	.
8g	.
=	=
8ccL	.
8ee-J	.
4r	.
2r	.
!!linebreak:original
=	=
8r	Ab:7
8dd^^	.
4r	.
4.dd	.
8cc	.
=	=
4.dd	G:7
8cc	.
8ee-L	.
8ccJ	.
4ee-	.
=	=
[1cc	C:min7
=	=
2..cc]	.
8g	.
==	==
*-	*-
